X:194
T:Polska efter Lars August Bengtsson
R:sl\"angpolska
B:SvL Sml 35, efter Lars August Bengtsson, Loftahammar
Z:id:hn-sp-194
M:3/4
L:1/16
K:G
G2B2 A2c2 B2d2 | e2f2 g4 B4 | c2d2 e2d2 c2B2 | A2G2 FGFE D4 |
G2B2 A2c2 B2d2 | e2f2 g4 B4 | c2d2 e2d2 c2B2 | AGFA G8 :|
|: d4 B2dB G2e2 | e2d2 d2c2 c2B2 | d4 B2dB G2e2 | e2d2 d2c2 c2B2 |
G2B2 A2c2 B2d2 | e2f2 g4 B4 | c2d2 e2d2 c2B2 | AGFA G8 :|

